src/images_karasa_jaga_svg/cmd/lc_fontworkshapetype.fontwork-open-circle-pour.svg

<svg height="24" viewBox="0 0 24 24" width="24" xmlns="http://www.w3.org/2000/svg" xmlns:xlink="http://www.w3.org/1999/xlink"><linearGradient id="a"><stop offset="0" stop-color="#7c9fcf"/><stop offset=".5" stop-color="#7c9ece"/><stop offset="1" stop-color="#7b9dcf"/></linearGradient><linearGradient id="b"><stop offset="0" stop-color="#fff"/><stop offset=".53340602" stop-color="#fff"/><stop offset=".9375" stop-color="#f1f1f1"/><stop offset=".96875" stop-color="#eaeaea"/><stop offset="1" stop-color="#dfdfdf"/></linearGradient><linearGradient id="c" gradientUnits="userSpaceOnUse" x1="0" x2="127.9982" xlink:href="#a" y1="64.0009" y2="64.0009"/><linearGradient id="d" gradientUnits="userSpaceOnUse" x1="63.9991" x2="63.9991" xlink:href="#b" y1="128" y2=".0018"/><linearGradient id="e" gradientUnits="userSpaceOnUse" x1="63.9991" x2="63.9991" xlink:href="#b" y1="110.5457" y2="29.0923"/><linearGradient id="f" gradientUnits="userSpaceOnUse" x1="63.9991" x2="63.9991" xlink:href="#a" y1="110.5457" y2="29.0923"/><g transform="matrix(.171875 0 0 .171875 .974955 1)"><g transform="translate(.29338 -.001953)"><path d="m64 .00195313a63.9991 63.9991 0 0 0 -64 63.99804687h29.089844a34.9086 34.9086 0 0 1 34.910156-34.908203 34.9086 34.9086 0 0 1 34.908203 34.908203h29.089847a63.9991 63.9991 0 0 0 -63.99805-63.99804687z" fill="url(#c)"/><path d="m64 5.8203125c-29.856368.0308864-54.8432567 22.6564765-57.828125 52.3632815h17.976563c2.884929-19.795502 19.84696-34.483072 39.851562-34.507813 20.009051.01893 36.9777 14.707916 39.86328 34.507813h18.02344c-2.98713-29.729107-28.007919-52.3624655-57.88672-52.3632815z" fill="url(#d)"/></g><path d="m29.089844 63.496094c-3.491604.000209-6.322057 2.830661-6.322266 6.322265v17.454819c.000209 3.491605 2.830661 6.322057 6.322266 6.322266h69.818359c3.491607-.000208 6.322057-2.830661 6.322267-6.322266v-17.454819c-.00021-3.491605-2.83066-6.322057-6.322267-6.322265z" fill="url(#f)"/><path d="m29.0905 69.819h69.8172v17.4543h-69.8172z" fill="url(#e)"/></g></svg>

<?xml version="1.0" encoding="UTF-8" standalone="no"?>
<!-- Created with Inkscape (http://www.inkscape.org/) -->

<svg
   xmlns:dc="http://purl.org/dc/elements/1.1/"
   xmlns:cc="http://creativecommons.org/ns#"
   xmlns:rdf="http://www.w3.org/1999/02/22-rdf-syntax-ns#"
   xmlns:svg="http://www.w3.org/2000/svg"
   xmlns="http://www.w3.org/2000/svg"
   xmlns:xlink="http://www.w3.org/1999/xlink"
   xmlns:sodipodi="http://sodipodi.sourceforge.net/DTD/sodipodi-0.dtd"
   xmlns:inkscape="http://www.inkscape.org/namespaces/inkscape"
   version="1.1"
   id="svg2"
   width="128"
   height="128"
   viewBox="0 0 128 128"
   sodipodi:docname="lc_fontworkshapetype.fontwork-open-circle-pour.svg"
   inkscape:export-filename="/home/rizmut/Dokumen/Rizmut/Github/libreoffice-style-karasa-jaga/build/images_karasa_jaga/cmd/lc_fontworkshapetype.fontwork-open-circle-pour.png"
   inkscape:export-xdpi="16.5"
   inkscape:export-ydpi="16.5"
   inkscape:version="0.92.3 (unknown)">
  <metadata
     id="metadata8">
    <rdf:RDF>
      <cc:Work
         rdf:about="">
        <dc:format>image/svg+xml</dc:format>
        <dc:type
           rdf:resource="http://purl.org/dc/dcmitype/StillImage" />
        <dc:title />
      </cc:Work>
    </rdf:RDF>
  </metadata>
  <defs
     id="defs6">
    <linearGradient
       id="linearGradient7422">
      <stop
         style="stop-color:#7c9fcf;stop-opacity:1"
         offset="0"
         id="stop7424" />
      <stop
         id="stop5348"
         offset="0.5"
         style="stop-color:#7c9ece;stop-opacity:1" />
      <stop
         id="stop7426"
         offset="1"
         style="stop-color:#7b9dcf;stop-opacity:1" />
    </linearGradient>
    <linearGradient
       id="linearGradient3369">
      <stop
         id="stop3372"
         offset="0"
         style="stop-color:#ffffff;stop-opacity:1;" />
      <stop
         style="stop-color:#ffffff;stop-opacity:1;"
         offset="0.53340602"
         id="stop3374" />
      <stop
         style="stop-color:#f1f1f1;stop-opacity:1;"
         offset="0.9375"
         id="stop3376" />
      <stop
         id="stop3378"
         offset="0.96875"
         style="stop-color:#eaeaea;stop-opacity:1;" />
      <stop
         id="stop3384"
         offset="1"
         style="stop-color:#dfdfdf;stop-opacity:1;" />
    </linearGradient>
    <linearGradient
       inkscape:collect="always"
       xlink:href="#linearGradient7422"
       id="linearGradient1452"
       x1="0"
       y1="64.0009"
       x2="127.9982"
       y2="64.0009"
       gradientUnits="userSpaceOnUse" />
    <linearGradient
       inkscape:collect="always"
       xlink:href="#linearGradient3369"
       id="linearGradient1469"
       x1="63.9991"
       y1="128"
       x2="63.9991"
       y2="0.0018"
       gradientUnits="userSpaceOnUse" />
    <linearGradient
       inkscape:collect="always"
       xlink:href="#linearGradient3369"
       id="linearGradient2817"
       x1="63.9991"
       y1="110.5457"
       x2="63.9991"
       y2="29.0923"
       gradientUnits="userSpaceOnUse" />
    <linearGradient
       inkscape:collect="always"
       xlink:href="#linearGradient7422"
       id="linearGradient2821"
       gradientUnits="userSpaceOnUse"
       x1="63.9991"
       y1="110.5457"
       x2="63.9991"
       y2="29.0923" />
  </defs>
  <sodipodi:namedview
     pagecolor="#ffffff"
     bordercolor="#666666"
     borderopacity="1"
     objecttolerance="10"
     gridtolerance="10"
     guidetolerance="10"
     inkscape:pageopacity="0"
     inkscape:pageshadow="2"
     inkscape:window-width="1366"
     inkscape:window-height="706"
     id="namedview4"
     showgrid="true"
     inkscape:snap-page="true"
     inkscape:snap-global="true"
     inkscape:zoom="4.0000002"
     inkscape:cx="39.768512"
     inkscape:cy="55.105679"
     inkscape:window-x="0"
     inkscape:window-y="0"
     inkscape:window-maximized="1"
     inkscape:current-layer="svg2"
     inkscape:snap-smooth-nodes="true">
    <inkscape:grid
       type="xygrid"
       id="grid1442"
       spacingx="5.8181"
       spacingy="5.8181"
       empspacing="1" />
  </sodipodi:namedview>
  <g
     id="g846">
    <g
       transform="translate(0.29338,-0.00195312)"
       id="g1461">
      <path
         inkscape:connector-curvature="0"
         id="path1444"
         d="M 64,0.00195313 A 63.9991,63.9991 0 0 0 0,64 H 29.089844 A 34.9086,34.9086 0 0 1 64,29.091797 34.9086,34.9086 0 0 1 98.908203,64 H 127.99805 A 63.9991,63.9991 0 0 0 64,0.00195313 Z"
         style="opacity:1;fill:url(#linearGradient1452);fill-opacity:1;stroke:none;stroke-width:8;stroke-linecap:round;stroke-linejoin:round;stroke-miterlimit:4;stroke-dasharray:none;stroke-dashoffset:0;stroke-opacity:1" />
      <path
         sodipodi:nodetypes="ccccccc"
         inkscape:connector-curvature="0"
         id="circle20802"
         d="M 64,5.8203125 C 34.143632,5.8511989 9.1567433,28.476789 6.171875,58.183594 H 24.148438 C 27.033367,38.388092 43.995398,23.700522 64,23.675781 c 20.009051,0.01893 36.9777,14.707916 39.86328,34.507813 h 18.02344 C 118.89959,28.454487 93.878801,5.8211285 64,5.8203125 Z"
         style="opacity:1;fill:url(#linearGradient1469);fill-opacity:1;stroke:none;stroke-width:4.85127258;stroke-linecap:square;stroke-linejoin:bevel;stroke-miterlimit:4;stroke-dasharray:none;stroke-dashoffset:0;stroke-opacity:1" />
    </g>
    <g
       id="g838">
      <path
         style="opacity:1;fill:url(#linearGradient2821);fill-opacity:1;stroke:none;stroke-width:8;stroke-linecap:round;stroke-linejoin:round;stroke-miterlimit:4;stroke-dasharray:none;stroke-dashoffset:0;stroke-opacity:1"
         d="m 29.089844,63.496094 c -3.491604,2.09e-4 -6.322057,2.830661 -6.322266,6.322265 l 0,17.454819 c 2.09e-4,3.491605 2.830661,6.322057 6.322266,6.322266 h 69.818359 c 3.491607,-2.08e-4 6.322057,-2.830661 6.322267,-6.322266 l 0,-17.454819 c -2.1e-4,-3.491605 -2.83066,-6.322057 -6.322267,-6.322265 z"
         id="rect2819"
         inkscape:connector-curvature="0"
         sodipodi:nodetypes="ccccccccc" />
      <path
         style="opacity:1;fill:url(#linearGradient2817);fill-opacity:1;stroke:none;stroke-width:8;stroke-linecap:round;stroke-linejoin:round;stroke-miterlimit:4;stroke-dasharray:none;stroke-dashoffset:0;stroke-opacity:1"
         d="m 29.0905,69.819 h 69.8172 l 0,17.4543 H 29.0905 Z"
         id="rect2809"
         inkscape:connector-curvature="0"
         sodipodi:nodetypes="ccccc" />
    </g>
  </g>
</svg>
